static/img/kroki/acf91b7aa894ac64d60bc8c3fe5bff69.svg

<?xml version="1.0" encoding="us-ascii" standalone="no"?><svg xmlns="http://www.w3.org/2000/svg" xmlns:xlink="http://www.w3.org/1999/xlink" contentStyleType="text/css" height="573px" preserveAspectRatio="none" style="width:370px;height:573px;" version="1.1" viewBox="0 0 370 573" width="370px" zoomAndPan="magnify"><defs/><g><!--class ai_job--><g id="elem_ai_job"><rect codeLine="23" fill="#3D176E" height="39.7891" id="ai_job" rx="2.5" ry="2.5" style="stroke:#000D19;stroke-width:0.5;" width="91" x="77.5" y="367.37"/><ellipse cx="92.5" cy="387.2645" fill="#ADD1B2" rx="11" ry="11" style="stroke:#181818;stroke-width:1.0;"/><path d="M95.4688,392.9052 Q94.8906,393.202 94.25,393.3427 Q93.6094,393.4989 92.9063,393.4989 Q90.4063,393.4989 89.0781,391.8583 Q87.7656,390.202 87.7656,387.077 Q87.7656,383.952 89.0781,382.2958 Q90.4063,380.6395 92.9063,380.6395 Q93.6094,380.6395 94.25,380.7958 Q94.9063,380.952 95.4688,381.2489 L95.4688,383.9677 Q94.8438,383.3895 94.25,383.1239 Q93.6563,382.8427 93.0313,382.8427 Q91.6875,382.8427 91,383.9208 Q90.3125,384.9833 90.3125,387.077 Q90.3125,389.1708 91,390.2489 Q91.6875,391.3114 93.0313,391.3114 Q93.6563,391.3114 94.25,391.0458 Q94.8438,390.7645 95.4688,390.1864 L95.4688,392.9052 Z " fill="#000000"/><text fill="#D9B8FF" font-family="Helvetica" font-size="17" lengthAdjust="spacing" textLength="49" x="111.5" y="393.1498">ai_job</text></g><!--class ai_resource--><g id="elem_ai_resource"><rect codeLine="26" fill="#3D176E" height="39.7891" id="ai_resource" rx="2.5" ry="2.5" style="stroke:#000D19;stroke-width:0.5;" width="137" x="42.5" y="167.79"/><ellipse cx="57.5" cy="187.6845" fill="#ADD1B2" rx="11" ry="11" style="stroke:#181818;stroke-width:1.0;"/><path d="M60.4688,193.3252 Q59.8906,193.622 59.25,193.7627 Q58.6094,193.9189 57.9063,193.9189 Q55.4063,193.9189 54.0781,192.2783 Q52.7656,190.622 52.7656,187.497 Q52.7656,184.372 54.0781,182.7158 Q55.4063,181.0595 57.9063,181.0595 Q58.6094,181.0595 59.25,181.2158 Q59.9063,181.372 60.4688,181.6689 L60.4688,184.3877 Q59.8438,183.8095 59.25,183.5439 Q58.6563,183.2627 58.0313,183.2627 Q56.6875,183.2627 56,184.3408 Q55.3125,185.4033 55.3125,187.497 Q55.3125,189.5908 56,190.6689 Q56.6875,191.7314 58.0313,191.7314 Q58.6563,191.7314 59.25,191.4658 Q59.8438,191.1845 60.4688,190.6064 L60.4688,193.3252 Z " fill="#000000"/><text fill="#D9B8FF" font-family="Helvetica" font-size="17" lengthAdjust="spacing" textLength="95" x="76.5" y="193.5698">ai_resource</text></g><!--class azure_machine_learning_labeling_job--><g id="elem_azure_machine_learning_labeling_job"><rect codeLine="29" fill="#3D176E" height="39.7891" id="azure_machine_learning_labeling_job" rx="2.5" ry="2.5" style="stroke:#000D19;stroke-width:0.5;" width="356" x="7" y="528.16"/><ellipse cx="22" cy="548.0545" fill="#ADD1B2" rx="11" ry="11" style="stroke:#181818;stroke-width:1.0;"/><path d="M24.9688,553.6952 Q24.3906,553.992 23.75,554.1327 Q23.1094,554.2889 22.4063,554.2889 Q19.9063,554.2889 18.5781,552.6483 Q17.2656,550.992 17.2656,547.867 Q17.2656,544.742 18.5781,543.0858 Q19.9063,541.4295 22.4063,541.4295 Q23.1094,541.4295 23.75,541.5858 Q24.4063,541.742 24.9688,542.0389 L24.9688,544.7577 Q24.3438,544.1795 23.75,543.9139 Q23.1563,543.6327 22.5313,543.6327 Q21.1875,543.6327 20.5,544.7108 Q19.8125,545.7733 19.8125,547.867 Q19.8125,549.9608 20.5,551.0389 Q21.1875,552.1014 22.5313,552.1014 Q23.1563,552.1014 23.75,551.8358 Q24.3438,551.5545 24.9688,550.9764 L24.9688,553.6952 Z " fill="#000000"/><text fill="#D9B8FF" font-family="Helvetica" font-size="17" lengthAdjust="spacing" textLength="314" x="41" y="553.9398">azure_machine_learning_labeling_job</text></g><!--class microsoft_resource--><g id="elem_microsoft_resource"><rect codeLine="32" fill="#3D176E" height="39.7891" id="microsoft_resource" rx="2.5" ry="2.5" style="stroke:#000D19;stroke-width:0.5;" width="200" x="149" y="267.58"/><ellipse cx="164" cy="287.4745" fill="#ADD1B2" rx="11" ry="11" style="stroke:#181818;stroke-width:1.0;"/><path d="M166.9688,293.1152 Q166.3906,293.412 165.75,293.5527 Q165.1094,293.7089 164.4063,293.7089 Q161.9063,293.7089 160.5781,292.0683 Q159.2656,290.412 159.2656,287.287 Q159.2656,284.162 160.5781,282.5058 Q161.9063,280.8495 164.4063,280.8495 Q165.1094,280.8495 165.75,281.0058 Q166.4063,281.162 166.9688,281.4589 L166.9688,284.1777 Q166.3438,283.5995 165.75,283.3339 Q165.1563,283.0527 164.5313,283.0527 Q163.1875,283.0527 162.5,284.1308 Q161.8125,285.1933 161.8125,287.287 Q161.8125,289.3808 162.5,290.4589 Q163.1875,291.5214 164.5313,291.5214 Q165.1563,291.5214 165.75,291.2558 Q166.3438,290.9745 166.9688,290.3964 L166.9688,293.1152 Z " fill="#000000"/><text fill="#D9B8FF" font-family="Helvetica" font-size="17" lengthAdjust="spacing" textLength="158" x="183" y="293.3598">microsoft_resource</text></g><!--class resource--><g id="elem_resource"><rect codeLine="35" fill="#3D176E" height="39.7891" id="resource" rx="2.5" ry="2.5" style="stroke:#000D19;stroke-width:0.5;" width="113" x="123.5" y="7"/><ellipse cx="138.5" cy="26.8945" fill="#ADD1B2" rx="11" ry="11" style="stroke:#181818;stroke-width:1.0;"/><path d="M141.4688,32.5352 Q140.8906,32.832 140.25,32.9727 Q139.6094,33.1289 138.9063,33.1289 Q136.4063,33.1289 135.0781,31.4883 Q133.7656,29.832 133.7656,26.707 Q133.7656,23.582 135.0781,21.9258 Q136.4063,20.2695 138.9063,20.2695 Q139.6094,20.2695 140.25,20.4258 Q140.9063,20.582 141.4688,20.8789 L141.4688,23.5977 Q140.8438,23.0195 140.25,22.7539 Q139.6563,22.4727 139.0313,22.4727 Q137.6875,22.4727 137,23.5508 Q136.3125,24.6133 136.3125,26.707 Q136.3125,28.8008 137,29.8789 Q137.6875,30.9414 139.0313,30.9414 Q139.6563,30.9414 140.25,30.6758 Q140.8438,30.3945 141.4688,29.8164 L141.4688,32.5352 Z " fill="#000000"/><text fill="#D9B8FF" font-family="Helvetica" font-size="17" lengthAdjust="spacing" textLength="71" x="157.5" y="32.7798">resource</text></g><!--reverse link ai_resource to ai_job--><g id="link_ai_resource_ai_job"><path codeLine="38" d="M113.2641,225.9567 C115.5641,263.7267 119.52,329.05 121.82,366.88 " fill="none" id="ai_resource-backto-ai_job" style="stroke:#FFAF37;stroke-width:2.0;"/><polygon fill="none" points="112.17,207.99,107.2752,226.3214,119.253,225.592,112.17,207.99" style="stroke:#FFAF37;stroke-width:2.0;"/></g><!--reverse link resource to ai_resource--><g id="link_resource_ai_resource"><path codeLine="39" d="M164.5027,63.5572 C151.2327,94.0772 132.63,136.9 119.35,167.47 " fill="none" id="resource-backto-ai_resource" style="stroke:#FFAF37;stroke-width:2.0;"/><polygon fill="none" points="171.68,47.05,159.0003,61.1648,170.0051,65.9496,171.68,47.05" style="stroke:#FFAF37;stroke-width:2.0;"/></g><!--reverse link ai_job to azure_machine_learning_labeling_job--><g id="link_ai_job_azure_machine_learning_labeling_job"><path codeLine="40" d="M137.0284,424.1866 C148.9484,454.7066 165.56,497.27 177.49,527.83 " fill="none" id="ai_job-backto-azure_machine_learning_labeling_job" style="stroke:#FFAF37;stroke-width:2.0;"/><polygon fill="none" points="130.48,407.42,131.4396,426.3694,142.6173,422.0038,130.48,407.42" style="stroke:#FFAF37;stroke-width:2.0;"/></g><!--reverse link microsoft_resource to azure_machine_learning_labeling_job--><g id="link_microsoft_resource_azure_machine_learning_labeling_job"><path codeLine="41" d="M239.9675,324.9633 C228.1675,372.6633 201.71,479.56 189.8,527.66 " fill="none" id="microsoft_resource-backto-azure_machine_learning_labeling_job" style="stroke:#FFAF37;stroke-width:2.0;"/><polygon fill="none" points="244.29,307.49,234.143,323.5224,245.7919,326.4041,244.29,307.49" style="stroke:#FFAF37;stroke-width:2.0;"/></g><!--reverse link resource to microsoft_resource--><g id="link_resource_microsoft_resource"><path codeLine="42" d="M189.7104,64.3016 C202.4404,112.0116 230.99,218.98 243.83,267.08 " fill="none" id="resource-backto-microsoft_resource" style="stroke:#FFAF37;stroke-width:2.0;"/><polygon fill="none" points="185.07,46.91,183.9132,65.8484,195.5076,62.7548,185.07,46.91" style="stroke:#FFAF37;stroke-width:2.0;"/></g><!--SRC=[ZP1DJm8n48Rl_HLDE9E0H874Yv8OlH0ZtZUpxPIjT5ioxKf0_U-oicZfyk6jUUVfp3DJQ8aSosLOynBB7Caplz1s2GGbloDoguapZdX7AL23OLfyS3PS1APG8dz4yuv12qY9rqABXKNl-LLKkWUnc9EhhDor3mJMRqjeGqHD37X_5mBfl0eOoSXnFb8g9TEcdO7i3s-mXJcII0tIw_LaVvmY5qUTtVkNcEaDydvyjAaBsD9iZVYXpbhMH2JPMdHVF-du359gE-VNKVQoSoABT93F2f1kLTCAZ8_7-824BgoNE6bjXUEHLCEZyDCfc8dwT1nqzkPo_i7Orrz2w5r50W_YJKMObI0ARJ4p26Itcfc174tzIBgKMf3pJeMZpGwpUEBjPxVRRQnOEzqdhF5k2fVTs16X_tzElhHxiMy0]--></g></svg>

<svg xmlns="http://www.w3.org/2000/svg" width="370" height="573" viewBox="0 0 370 573"><rect width="91" height="39.789" x="77.5" y="367.37" fill="#3D176E" rx="2.5" ry="2.5" style="stroke:#000d19;stroke-width:.5"/><circle cx="92.5" cy="387.264" r="11" fill="#ADD1B2" style="stroke:#181818;stroke-width:1"/><path d="M95.469 392.905q-.578.297-1.219.438-.64.156-1.344.156-2.5 0-3.828-1.64-1.312-1.657-1.312-4.782t1.312-4.781q1.328-1.656 3.828-1.656.703 0 1.344.156.656.156 1.219.453v2.719q-.625-.579-1.219-.844-.594-.281-1.219-.281-1.344 0-2.031 1.078-.687 1.062-.687 3.156t.687 3.172q.688 1.062 2.031 1.062.625 0 1.219-.265.594-.281 1.219-.86z"/><text x="111.5" y="393.15" fill="#D9B8FF" font-family="Helvetica" font-size="17" textLength="49">ai_job</text><rect width="137" height="39.789" x="42.5" y="167.79" fill="#3D176E" rx="2.5" ry="2.5" style="stroke:#000d19;stroke-width:.5"/><circle cx="57.5" cy="187.685" r="11" fill="#ADD1B2" style="stroke:#181818;stroke-width:1"/><path d="M60.469 193.325q-.578.297-1.219.438-.64.156-1.344.156-2.5 0-3.828-1.64-1.312-1.657-1.312-4.782t1.312-4.781q1.328-1.656 3.828-1.656.703 0 1.344.156.656.156 1.219.453v2.719q-.625-.578-1.219-.844-.594-.281-1.219-.281-1.343 0-2.031 1.078-.687 1.062-.687 3.156t.687 3.172q.688 1.062 2.031 1.062.625 0 1.219-.265.594-.281 1.219-.86z"/><text x="76.5" y="193.57" fill="#D9B8FF" font-family="Helvetica" font-size="17" textLength="95">ai_resource</text><rect width="356" height="39.789" x="7" y="528.16" fill="#3D176E" rx="2.5" ry="2.5" style="stroke:#000d19;stroke-width:.5"/><circle cx="22" cy="548.054" r="11" fill="#ADD1B2" style="stroke:#181818;stroke-width:1"/><path d="M24.969 553.695q-.578.297-1.219.438-.64.156-1.344.156-2.5 0-3.828-1.64-1.312-1.657-1.312-4.782t1.312-4.781q1.328-1.657 3.828-1.657.703 0 1.344.157.656.156 1.219.453v2.719q-.625-.579-1.219-.844-.594-.281-1.219-.281-1.343 0-2.031 1.078-.687 1.062-.687 3.156t.687 3.172q.688 1.062 2.031 1.062.625 0 1.219-.265.594-.282 1.219-.86z"/><text x="41" y="553.94" fill="#D9B8FF" font-family="Helvetica" font-size="17" textLength="314">azure_machine_learning_labeling_job</text><rect width="200" height="39.789" x="149" y="267.58" fill="#3D176E" rx="2.5" ry="2.5" style="stroke:#000d19;stroke-width:.5"/><circle cx="164" cy="287.474" r="11" fill="#ADD1B2" style="stroke:#181818;stroke-width:1"/><path d="M166.969 293.115q-.578.297-1.219.438-.64.156-1.344.156-2.5 0-3.828-1.64-1.312-1.657-1.312-4.782t1.312-4.781q1.328-1.656 3.828-1.656.703 0 1.344.156.656.156 1.219.453v2.719q-.625-.579-1.219-.844-.594-.281-1.219-.281-1.344 0-2.031 1.078-.687 1.062-.687 3.156t.687 3.172q.688 1.062 2.031 1.062.625 0 1.219-.265.594-.281 1.219-.86z"/><text x="183" y="293.36" fill="#D9B8FF" font-family="Helvetica" font-size="17" textLength="158">microsoft_resource</text><rect width="113" height="39.789" x="123.5" y="7" fill="#3D176E" rx="2.5" ry="2.5" style="stroke:#000d19;stroke-width:.5"/><circle cx="138.5" cy="26.895" r="11" fill="#ADD1B2" style="stroke:#181818;stroke-width:1"/><path d="M141.469 32.535q-.578.297-1.219.438-.64.156-1.344.156-2.5 0-3.828-1.64-1.312-1.657-1.312-4.782t1.312-4.781q1.328-1.656 3.828-1.656.703 0 1.344.156.656.156 1.219.453v2.719q-.625-.578-1.219-.844-.594-.281-1.219-.281-1.344 0-2.031 1.078-.687 1.062-.687 3.156t.687 3.172q.688 1.062 2.031 1.062.625 0 1.219-.265.594-.281 1.219-.86z"/><text x="157.5" y="32.78" fill="#D9B8FF" font-family="Helvetica" font-size="17" textLength="71">resource</text><path fill="none" d="M113.264 225.957c2.3 37.77 6.256 103.093 8.556 140.923m-9.65-158.89-4.895 18.331 11.978-.729z" style="stroke:#ffaf37;stroke-width:2"/><g fill="none"><path d="M164.503 63.557c-13.27 30.52-31.873 73.343-45.153 103.913" style="stroke:#ffaf37;stroke-width:2"/><path d="M171.68 47.05 159 61.165l11.005 4.785z" style="stroke:#ffaf37;stroke-width:2"/></g><g fill="none"><path d="M137.028 424.187c11.92 30.52 28.532 73.083 40.462 103.643" style="stroke:#ffaf37;stroke-width:2"/><path d="m130.48 407.42.96 18.95 11.177-4.366z" style="stroke:#ffaf37;stroke-width:2"/></g><g fill="none"><path d="M239.968 324.963c-11.8 47.7-38.258 154.597-50.168 202.697" style="stroke:#ffaf37;stroke-width:2"/><path d="m244.29 307.49-10.147 16.032 11.649 2.882z" style="stroke:#ffaf37;stroke-width:2"/></g><path fill="none" d="M189.71 64.302c12.73 47.71 41.28 154.678 54.12 202.778M185.07 46.91l-1.157 18.938 11.595-3.093z" style="stroke:#ffaf37;stroke-width:2"/></svg>
